Numix-Light/16/status/indicator-keyboard-Uk-5.svg

<?xml version="1.0" encoding="UTF-8" standalone="no"?>
<svg
   xmlns:dc="http://purl.org/dc/elements/1.1/"
   xmlns:cc="http://creativecommons.org/ns#"
   xmlns:rdf="http://www.w3.org/1999/02/22-rdf-syntax-ns#"
   xmlns:svg="http://www.w3.org/2000/svg"
   xmlns="http://www.w3.org/2000/svg"
   xmlns:sodipodi="http://sodipodi.sourceforge.net/DTD/sodipodi-0.dtd"
   xmlns:inkscape="http://www.inkscape.org/namespaces/inkscape"
   viewBox="0 0 16 16"
   id="svg2"
   version="1.1"
   inkscape:version="0.91 r13725"
   sodipodi:docname="indicator-keyboard-Uk-5.svg">
  <metadata
     id="metadata14">
    <rdf:RDF>
      <cc:Work
         rdf:about="">
        <dc:format>image/svg+xml</dc:format>
        <dc:type
           rdf:resource="http://purl.org/dc/dcmitype/StillImage" />
      </cc:Work>
    </rdf:RDF>
  </metadata>
  <defs
     id="defs12" />
  <sodipodi:namedview
     pagecolor="#ffffff"
     bordercolor="#666666"
     borderopacity="1"
     objecttolerance="10"
     gridtolerance="10"
     guidetolerance="10"
     inkscape:pageopacity="0"
     inkscape:pageshadow="2"
     inkscape:window-width="640"
     inkscape:window-height="480"
     id="namedview10"
     showgrid="false"
     inkscape:zoom="14.75"
     inkscape:cx="8"
     inkscape:cy="8"
     inkscape:window-x="65"
     inkscape:window-y="24"
     inkscape:window-maximized="0"
     inkscape:current-layer="svg2" />
  <path
     style="fill:#353535;fill-opacity:1"
     d="M 1.5996094 0 C 0.71320937 2.9605947e-16 0 0.71320937 0 1.5996094 L 0 14.400391 C 2.9605947e-16 15.286791 0.71320937 16 1.5996094 16 L 14.400391 16 C 15.286791 16 16 15.286791 16 14.400391 L 16 1.5996094 C 16 0.71320937 15.286791 0 14.400391 0 L 1.5996094 0 z M 8.390625 4.1113281 L 8.390625 8.5390625 C 8.540625 8.3950625 8.7085312 8.2309219 8.8945312 8.0449219 C 9.0805312 7.8589219 9.2651719 7.6705156 9.4511719 7.4785156 C 9.6431719 7.2865156 9.8241875 7.0999219 9.9921875 6.9199219 C 10.160188 6.7399219 10.303828 6.5813594 10.423828 6.4433594 L 11.125 6.4433594 C 10.987 6.5873594 10.832203 6.7496875 10.658203 6.9296875 C 10.484203 7.1096875 10.301375 7.2980937 10.109375 7.4960938 C 9.923375 7.6880937 9.7367812 7.8765 9.5507812 8.0625 L 9.046875 8.5664062 C 9.232875 8.6924062 9.430625 8.8547344 9.640625 9.0527344 C 9.856625 9.2507344 10.067484 9.4671719 10.271484 9.7011719 C 10.481484 9.9291721 10.675469 10.166109 10.855469 10.412109 C 11.041469 10.652109 11.198219 10.879703 11.324219 11.095703 L 10.630859 11.095703 C 10.486859 10.855703 10.320766 10.622531 10.134766 10.394531 C 9.9547656 10.160531 9.7645469 9.9403283 9.5605469 9.7363281 C 9.3625469 9.5323281 9.1610313 9.3476875 8.9570312 9.1796875 C 8.7590312 9.0116875 8.570625 8.8698594 8.390625 8.7558594 L 8.390625 11.095703 L 7.8046875 11.095703 L 7.8046875 4.2207031 L 8.390625 4.1113281 z M 1.6972656 4.859375 L 2.3085938 4.859375 L 2.3085938 8.7011719 C 2.3085938 9.0431719 2.3477813 9.34175 2.4257812 9.59375 C 2.5097812 9.83975 2.6235781 10.043078 2.7675781 10.205078 C 2.9115781 10.367078 3.0850625 10.486453 3.2890625 10.564453 C 3.4930625 10.642453 3.7206562 10.681641 3.9726562 10.681641 C 4.2246563 10.681641 4.4542031 10.642453 4.6582031 10.564453 C 4.8622031 10.486453 5.0356875 10.367078 5.1796875 10.205078 C 5.3236875 10.043078 5.4337187 9.83975 5.5117188 9.59375 C 5.5957187 9.34175 5.6386719 9.0431719 5.6386719 8.7011719 L 5.6386719 4.859375 L 6.25 4.859375 L 6.25 8.7832031 C 6.25 9.1252031 6.209 9.4460938 6.125 9.7460938 C 6.047 10.040094 5.9182812 10.297531 5.7382812 10.519531 C 5.5582812 10.741531 5.3213438 10.916969 5.0273438 11.042969 C 4.7393437 11.168969 4.3866562 11.230469 3.9726562 11.230469 C 3.5586562 11.230469 3.2061094 11.168969 2.9121094 11.042969 C 2.6241094 10.916969 2.3889844 10.741531 2.2089844 10.519531 C 2.0289844 10.297531 1.8984531 10.040094 1.8144531 9.7460938 C 1.7364531 9.4460938 1.6972656 9.1252031 1.6972656 8.7832031 L 1.6972656 4.859375 z M 12.337891 8.8417969 L 14.164062 8.8417969 L 14.164062 9.1757812 L 12.671875 9.1757812 C 12.668008 9.2498812 12.66213 9.3458906 12.654297 9.4628906 C 12.646497 9.5798906 12.638659 9.6994187 12.630859 9.8242188 C 12.623059 9.9451188 12.613262 10.062681 12.601562 10.175781 C 12.589862 10.288881 12.580066 10.379012 12.572266 10.445312 C 12.872566 10.453112 13.131209 10.490341 13.349609 10.556641 C 13.568009 10.622941 13.748272 10.711119 13.888672 10.824219 C 14.029072 10.937319 14.130966 11.074475 14.197266 11.234375 C 14.267466 11.394275 14.302734 11.572578 14.302734 11.767578 C 14.302734 11.939178 14.273344 12.097894 14.214844 12.246094 C 14.160244 12.394294 14.075984 12.523613 13.958984 12.632812 C 13.841984 12.742012 13.693072 12.828225 13.513672 12.890625 C 13.334272 12.953025 13.122653 12.984375 12.876953 12.984375 C 12.752153 12.984375 12.634591 12.974578 12.525391 12.955078 C 12.420091 12.939478 12.324081 12.919884 12.238281 12.896484 C 12.156381 12.873084 12.085844 12.849572 12.027344 12.826172 C 11.968844 12.802772 11.925737 12.783178 11.898438 12.767578 L 11.998047 12.427734 C 12.021447 12.443334 12.060634 12.462928 12.115234 12.486328 C 12.173734 12.509728 12.240353 12.533241 12.314453 12.556641 C 12.392452 12.576141 12.478666 12.593775 12.572266 12.609375 C 12.669766 12.624975 12.771653 12.632812 12.876953 12.632812 C 13.071953 12.632812 13.232628 12.611259 13.361328 12.568359 C 13.493928 12.521559 13.599734 12.458859 13.677734 12.380859 C 13.755734 12.302859 13.810597 12.212728 13.841797 12.111328 C 13.876897 12.006028 13.894531 11.894337 13.894531 11.773438 C 13.894531 11.617438 13.869059 11.476362 13.818359 11.351562 C 13.767659 11.226762 13.677528 11.120956 13.548828 11.035156 C 13.420128 10.949356 13.245744 10.884697 13.027344 10.841797 C 12.808944 10.794997 12.532665 10.771484 12.197266 10.771484 C 12.220666 10.572584 12.240259 10.392316 12.255859 10.228516 C 12.271459 10.060816 12.285175 9.9001469 12.296875 9.7480469 C 12.308575 9.5920469 12.316412 9.4431281 12.320312 9.2988281 C 12.328113 9.1506281 12.333991 8.9977969 12.337891 8.8417969 z "
     id="path4" />
</svg>

<svg xmlns="http://www.w3.org/2000/svg" viewBox="0 0 16 16">
 <path d="m 1.6 0 c -0.886 0 -1.6 0.713 -1.6 1.6 l 0 12.801 c 0 0.886 0.713 1.6 1.6 1.6 l 12.801 0 c 0.886 0 1.6 -0.713 1.6 -1.6 l 0 -12.801 c 0 -0.886 -0.713 -1.6 -1.6 -1.6 l -12.801 0 z m 6.791 4.111 l 0 4.428 c 0.15 -0.144 0.318 -0.308 0.504 -0.494 c 0.186 -0.186 0.371 -0.374 0.557 -0.566 c 0.192 -0.192 0.373 -0.379 0.541 -0.559 c 0.168 -0.18 0.312 -0.339 0.432 -0.477 l 0.701 0 c -0.138 0.144 -0.293 0.306 -0.467 0.486 c -0.174 0.18 -0.357 0.368 -0.549 0.566 c -0.186 0.192 -0.373 0.38 -0.559 0.566 l -0.504 0.504 c 0.186 0.126 0.384 0.288 0.594 0.486 c 0.216 0.198 0.427 0.414 0.631 0.648 c 0.21 0.228 0.404 0.465 0.584 0.711 c 0.186 0.24 0.343 0.468 0.469 0.684 l -0.693 0 c -0.144 -0.24 -0.31 -0.473 -0.496 -0.701 c -0.18 -0.234 -0.37 -0.454 -0.574 -0.658 c -0.198 -0.204 -0.4 -0.389 -0.604 -0.557 c -0.198 -0.168 -0.386 -0.31 -0.566 -0.424 l 0 2.34 l -0.586 0 l 0 -6.875 l 0.586 -0.109 z m -6.693 0.748 l 0.611 0 l 0 3.842 c 0 0.342 0.039 0.641 0.117 0.893 c 0.084 0.246 0.198 0.449 0.342 0.611 c 0.144 0.162 0.317 0.281 0.521 0.359 c 0.204 0.078 0.432 0.117 0.684 0.117 c 0.252 0 0.482 -0.039 0.686 -0.117 c 0.204 -0.078 0.377 -0.197 0.521 -0.359 c 0.144 -0.162 0.254 -0.365 0.332 -0.611 c 0.084 -0.252 0.127 -0.551 0.127 -0.893 l 0 -3.842 l 0.611 0 l 0 3.924 c 0 0.342 -0.041 0.663 -0.125 0.963 c -0.078 0.294 -0.207 0.551 -0.387 0.773 c -0.18 0.222 -0.417 0.397 -0.711 0.523 c -0.288 0.126 -0.641 0.188 -1.055 0.188 c -0.414 0 -0.767 -0.061 -1.061 -0.188 c -0.288 -0.126 -0.523 -0.301 -0.703 -0.523 c -0.18 -0.222 -0.311 -0.479 -0.395 -0.773 c -0.078 -0.3 -0.117 -0.621 -0.117 -0.963 l 0 -3.924 z m 10.641 3.982 l 1.826 0 l 0 0.334 l -1.492 0 c -0.004 0.074 -0.01 0.17 -0.018 0.287 c -0.008 0.117 -0.016 0.237 -0.023 0.361 c -0.008 0.121 -0.018 0.238 -0.029 0.352 c -0.012 0.113 -0.021 0.203 -0.029 0.27 c 0.3 0.008 0.559 0.045 0.777 0.111 c 0.218 0.066 0.399 0.154 0.539 0.268 c 0.14 0.113 0.242 0.25 0.309 0.41 c 0.07 0.16 0.105 0.338 0.105 0.533 c 0 0.172 -0.029 0.33 -0.088 0.479 c -0.055 0.148 -0.139 0.278 -0.256 0.387 c -0.117 0.109 -0.266 0.195 -0.445 0.258 c -0.179 0.062 -0.391 0.094 -0.637 0.094 c -0.125 0 -0.242 -0.01 -0.352 -0.029 c -0.105 -0.016 -0.201 -0.035 -0.287 -0.059 c -0.082 -0.023 -0.152 -0.047 -0.211 -0.07 c -0.058 -0.023 -0.102 -0.043 -0.129 -0.059 l 0.1 -0.34 c 0.023 0.016 0.063 0.035 0.117 0.059 c 0.059 0.023 0.125 0.047 0.199 0.07 c 0.078 0.019 0.164 0.037 0.258 0.053 c 0.097 0.016 0.199 0.023 0.305 0.023 c 0.195 0 0.356 -0.022 0.484 -0.064 c 0.133 -0.047 0.238 -0.109 0.316 -0.188 c 0.078 -0.078 0.133 -0.168 0.164 -0.27 c 0.035 -0.105 0.053 -0.217 0.053 -0.338 c 0 -0.156 -0.025 -0.297 -0.076 -0.422 c -0.051 -0.125 -0.141 -0.231 -0.27 -0.316 c -0.129 -0.086 -0.303 -0.15 -0.521 -0.193 c -0.218 -0.047 -0.495 -0.07 -0.83 -0.07 c 0.023 -0.199 0.043 -0.379 0.059 -0.543 c 0.016 -0.168 0.029 -0.328 0.041 -0.48 c 0.012 -0.156 0.02 -0.305 0.023 -0.449 c 0.008 -0.148 0.014 -0.301 0.018 -0.457 z" style="fill:#353535;fill-opacity:1"/>
</svg>
